packages/foundations/assets/icons/functional/images/human/clothes_hanger_28.svg

<svg width="28" height="28" viewBox="0 0 28 28" fill="none" xmlns="http://www.w3.org/2000/svg">
<g clip-path="url(#clip0_185_1125)">
<path fill-rule="evenodd" clip-rule="evenodd" d="M13.9997 6.125C15.9327 6.125 17.4997 7.692 17.4997 9.625C17.4997 11.2445 16.3867 12.072 15.8114 12.4768C15.2361 12.8817 14.9373 12.8817 14.8924 13.5712L14.8752 14.2564L24.6189 17.62C25.7608 18.0147 26.3664 19.2604 25.9717 20.4022C25.6839 21.2347 24.922 21.8425 23.9346 21.875H4.09515C2.88703 21.875 1.90765 20.8956 1.90765 19.6875C1.90765 18.8067 2.43512 18.0173 3.2363 17.6756L13.1258 14.2555C13.1258 12.5922 13.3653 11.893 14.4302 11.2791C15.38 10.7145 15.7497 10.2605 15.7497 9.625C15.7497 8.6585 14.9662 7.875 13.9997 7.875C13.0771 7.875 12.2967 8.5754 12.2497 9.625C12.2497 10.1036 11.858 10.5 11.3747 10.5C10.8915 10.5 10.4997 10.1082 10.4997 9.625C10.4997 7.692 12.0667 6.125 13.9997 6.125ZM13.9997 15.853C13.8925 15.853 13.7261 15.8932 13.5005 15.9737L3.95222 19.274C3.77592 19.3349 3.65765 19.501 3.65765 19.6875C3.65765 19.9023 3.81242 20.0809 4.01651 20.118L23.9043 20.125C24.0908 20.125 24.2568 20.0067 24.3177 19.8304C24.3879 19.6274 24.3177 19.3355 23.9346 19.2369L14.4989 15.9737C14.2733 15.8932 14.1069 15.853 13.9997 15.853Z" fill="#1A1C1F"/>
</g>
<defs>
<clipPath id="clip0_185_1125">
<rect width="28" height="28" fill="white"/>
</clipPath>
</defs>
</svg>

<svg xmlns="http://www.w3.org/2000/svg" width="28" height="28" fill="none"><g clip-path="url(#a)"><path fill="#1A1C1F" fill-rule="evenodd" d="M14 6.125a3.5 3.5 0 0 1 3.5 3.5c0 1.62-1.113 2.447-1.689 2.852-.575.405-.874.405-.919 1.094l-.017.685 9.744 3.364a2.19 2.19 0 0 1 1.353 2.782c-.288.833-1.05 1.44-2.037 1.473H4.095a2.188 2.188 0 0 1-.859-4.2l9.89-3.42c0-1.663.24-2.362 1.304-2.976.95-.565 1.32-1.018 1.32-1.654A1.75 1.75 0 0 0 14 7.875c-.923 0-1.703.7-1.75 1.75a.875.875 0 0 1-1.75 0 3.5 3.5 0 0 1 3.5-3.5m0 9.728q-.16 0-.5.12l-9.548 3.301a.438.438 0 0 0 .065.844l19.887.007a.44.44 0 0 0 .414-.295c.07-.203 0-.494-.383-.593l-9.436-3.263q-.338-.12-.5-.121" clip-rule="evenodd"/></g><defs><clipPath id="a"><path fill="#fff" d="M0 0h28v28H0z"/></clipPath></defs></svg>
